symbols/general/engine_shed.svg

<?xml version="1.0" encoding="UTF-8" standalone="no"?>
<svg
   width="12.038281"
   height="18.856001"
   viewBox="0 0 12.038281 18.856001"
   version="1.1"
   id="svg4"
   sodipodi:docname="engine_shed.svg"
   inkscape:version="1.4 (e7c3feb100, 2024-10-09)"
   xmlns:inkscape="http://www.inkscape.org/namespaces/inkscape"
   xmlns:sodipodi="http://sodipodi.sourceforge.net/DTD/sodipodi-0.dtd"
   xmlns="http://www.w3.org/2000/svg"
   xmlns:svg="http://www.w3.org/2000/svg">
  <defs
     id="defs4">
    <inkscape:path-effect
       effect="circle_3pts"
       id="path-effect5"
       is_visible="true"
       lpeversion="1" />
    <inkscape:path-effect
       effect="line_segment"
       id="path-effect4"
       is_visible="true"
       lpeversion="1"
       end_type="open_both" />
  </defs>
  <sodipodi:namedview
     id="namedview4"
     pagecolor="#ffffff"
     bordercolor="#999999"
     borderopacity="1"
     inkscape:showpageshadow="0"
     inkscape:pageopacity="0"
     inkscape:pagecheckerboard="0"
     inkscape:deskcolor="#d1d1d1"
     inkscape:zoom="20.525"
     inkscape:cx="2.046285"
     inkscape:cy="9.9634592"
     inkscape:window-width="1920"
     inkscape:window-height="1008"
     inkscape:window-x="1920"
     inkscape:window-y="0"
     inkscape:window-maximized="1"
     inkscape:current-layer="svg4" />
  <path
     fill-rule="evenodd"
     fill="#040404"
     fill-opacity="1"
     d="M 4.882812,6.4966237 C 3.796875,6.5669367 3.152344,6.6724047 2.554688,6.8755297 1.601562,7.2114677 1.070312,7.7153737 0.863281,8.4927177 L 0.808594,8.6919367 0.804688,12.059124 c -0.007813,3.671875 -0.011719,3.582031 0.128906,3.972656 0.148437,0.429688 0.484375,0.875 0.859375,1.121094 0.300781,0.214844 0.730469,0.367187 1.070312,0.386719 l 0.210938,0.01953 -0.972657,0.972656 v 0.324219 H 3.5625 L 4.875,17.551311 h 2.4375 l 0.652344,0.652344 0.65625,0.652344 h 1.3125 V 18.53178 L 9.453125,18.043499 8.960938,17.559124 9.175781,17.539593 c 0.339844,-0.01953 0.769531,-0.171875 1.074219,-0.386719 0.367188,-0.246094 0.710938,-0.691406 0.855469,-1.117187 0.140625,-0.390626 0.136719,-0.3125 0.136719,-3.867188 0,-2.109375 -0.0078,-3.3359383 -0.02734,-3.4609383 C 11.136718,8.0903737 10.81641,7.5708427 10.324223,7.2427177 9.679688,6.8130297 8.800781,6.5903737 7.375,6.5044367 7.023438,6.4809987 5.179688,6.4731867 4.882812,6.4966237 M 2.125,10.383343 v 1.292968 H 5.363281 V 9.0903737 H 2.125 v 1.2929693 m 4.546875,0 v 1.292968 H 9.910156 V 9.0903737 H 6.671875 V 10.383343 M 2.8125,14.348187 c -0.164062,0.05078 -0.28125,0.125 -0.402344,0.246093 -0.1875,0.191407 -0.285156,0.410157 -0.285156,0.683594 0,0.601563 0.566406,1.0625 1.15625,0.933594 0.746094,-0.15625 1.027344,-1.074219 0.496094,-1.613281 C 3.589844,14.414593 3.375,14.328655 3.117188,14.320843 2.996094,14.316937 2.875,14.324749 2.8125,14.348187 m 5.875,0 c -0.480469,0.148437 -0.761719,0.59375 -0.683594,1.074218 0.117188,0.726563 0.96875,1.058594 1.550782,0.605469 0.359374,-0.292969 0.460937,-0.796875 0.242187,-1.222656 -0.0625,-0.125 -0.257813,-0.316407 -0.378906,-0.378907 C 9.191406,14.31303 8.898438,14.277874 8.6875,14.348187"
     id="path1" />
  <path
     d="M 12.038,4.8065284 11.138,5.5 6.0191413,1.386576 0.9,5.5 0,4.8065284 6.0191413,0 Z"
     id="path1-3"
     style="fill:#040404;fill-opacity:1;stroke-width:0.0110384;stroke-dasharray:none"
     sodipodi:nodetypes="ccccccc" />
</svg>

<?xml version="1.0" encoding="UTF-8"?>
<svg xmlns="http://www.w3.org/2000/svg" xmlns:xlink="http://www.w3.org/1999/xlink" width="12" height="18.796039" viewBox="0 0 12 18.796039">
<path fill-rule="evenodd" fill="rgb(1.568627%, 1.568627%, 1.568627%)" fill-opacity="1" d="M 4.867188 6.476562 C 3.785156 6.546875 3.140625 6.652344 2.546875 6.855469 C 1.597656 7.1875 1.066406 7.691406 0.859375 8.464844 L 0.804688 8.664062 L 0.800781 12.019531 C 0.792969 15.679688 0.789062 15.589844 0.929688 15.980469 C 1.078125 16.410156 1.414062 16.851562 1.789062 17.097656 C 2.085938 17.3125 2.515625 17.464844 2.855469 17.484375 L 3.0625 17.503906 L 2.09375 18.472656 L 2.09375 18.796875 L 3.550781 18.796875 L 4.859375 17.496094 L 7.289062 17.496094 L 7.941406 18.144531 L 8.59375 18.796875 L 9.902344 18.796875 L 9.902344 18.472656 L 9.421875 17.984375 L 8.933594 17.503906 L 9.148438 17.484375 C 9.484375 17.464844 9.914062 17.3125 10.21875 17.097656 C 10.582031 16.851562 10.925781 16.410156 11.070312 15.984375 C 11.210938 15.59375 11.207031 15.671875 11.207031 12.128906 C 11.207031 10.027344 11.199219 8.804688 11.179688 8.679688 C 11.101562 8.066406 10.78125 7.546875 10.292969 7.21875 C 9.648438 6.792969 8.773438 6.570312 7.351562 6.484375 C 7 6.460938 5.164062 6.453125 4.867188 6.476562 M 2.117188 10.351562 L 2.117188 11.640625 L 5.347656 11.640625 L 5.347656 9.0625 L 2.117188 9.0625 L 2.117188 10.351562 M 6.652344 10.351562 L 6.652344 11.640625 L 9.878906 11.640625 L 9.878906 9.0625 L 6.652344 9.0625 L 6.652344 10.351562 M 2.804688 14.300781 C 2.640625 14.351562 2.523438 14.425781 2.402344 14.546875 C 2.214844 14.738281 2.117188 14.957031 2.117188 15.230469 C 2.117188 15.828125 2.683594 16.289062 3.269531 16.160156 C 4.015625 16.003906 4.292969 15.089844 3.765625 14.550781 C 3.578125 14.367188 3.363281 14.28125 3.105469 14.273438 C 2.988281 14.269531 2.867188 14.277344 2.804688 14.300781 M 8.660156 14.300781 C 8.179688 14.449219 7.902344 14.894531 7.976562 15.375 C 8.09375 16.097656 8.945312 16.429688 9.523438 15.976562 C 9.882812 15.683594 9.984375 15.183594 9.765625 14.757812 C 9.703125 14.632812 9.507812 14.441406 9.386719 14.378906 C 9.164062 14.265625 8.871094 14.234375 8.660156 14.300781 "/>
<path fill-rule="nonzero" fill="rgb(1.568627%, 1.568627%, 1.568627%)" fill-opacity="1" d="M 12 4.792969 L 11.101562 5.484375 L 6 1.382812 L 0.898438 5.484375 L 0 4.792969 L 6 0 Z M 12 4.792969 "/>
</svg>
